lg/slides.svg

<svg viewBox="0 0 256 248" version="1.1" xmlns="http://www.w3.org/2000/svg" preserveAspectRatio="xMidYMid" height="1em" width="1em">
  <g>
    <g>
      <path d="M50.1996332,0.0921704986 L255.88951,41.7086408 L214.271911,247.404093 L8.58203488,205.787623 L50.1996332,0.0921704986 L50.1996332,0.0921704986 Z" fill="#512833"/>
      <path d="M24.1706512,9.17308483 L233.053068,29.4464109 L212.779592,238.330372 L3.8971752,218.057046 L24.1706512,9.17308483 L24.1706512,9.17308483 Z" fill="#934358"/>
      <rect fill="#E5637C" x="0.182044444" y="18.8250505" width="209.869317" height="209.869317"/>
    </g>
    <path d="M72.5690182,162.917366 C72.5690182,161.676671 73.3442586,159.810198 74.9004283,157.322085 C76.4534949,154.835523 77.8529616,153.591725 79.0972768,153.591725 C79.2193293,153.591725 80.2164364,154.18337 82.0818747,155.364073 C83.946796,156.546844 86.6195394,157.72703 90.1021737,158.907733 C93.5822222,160.091022 97.7790707,160.680081 102.692719,160.680081 C107.603782,160.680081 111.645996,159.280614 114.816776,156.483232 C117.988073,153.685333 119.573721,149.893947 119.573721,145.105455 C119.573721,140.319547 118.174255,136.589188 115.376356,133.913341 C112.577939,131.241115 107.01162,128.723006 98.6820525,126.359531 C90.349899,123.99916 84.3196768,120.983014 80.5893172,117.313164 C76.8594747,113.646933 74.9935192,108.07958 74.9935192,100.618861 C74.9935192,93.1581414 77.8524444,86.9096727 83.573398,81.8734545 C89.2912485,76.8372364 96.753002,74.3191273 105.956073,74.3191273 C112.298149,74.3191273 117.955491,75.128501 122.930683,76.7436283 C127.902772,78.3618586 130.390885,80.1657535 130.390885,82.1532444 C130.390885,83.7704404 129.674085,85.8546424 128.246691,88.4017131 C126.81516,90.9518869 125.5424,92.2256808 124.422723,92.2256808 C124.297051,92.2256808 123.489745,91.8522828 121.998222,91.106004 C117.768792,88.8671677 113.012364,87.7485253 107.728937,87.7485253 C102.441891,87.7485253 98.3386505,88.8387232 95.4181818,91.0129131 C92.4946101,93.1896889 91.0346343,96.0196525 91.0346343,99.499701 C91.0346343,102.982335 92.1217293,105.718691 94.2990222,107.706699 C96.4732121,109.69781 100.17461,111.501705 105.39701,113.115798 C117.083539,116.724105 125.011265,120.669608 129.178634,124.960065 C133.343935,129.250521 135.42762,135.717754 135.42762,144.358659 C135.42762,153.003701 132.349931,160.119984 126.194036,165.716299 C120.038659,171.31158 112.67103,174.109479 104.091152,174.109479 C95.5112727,174.109479 88.1105455,172.835685 81.8946586,170.285511 C75.6761859,167.73844 72.5690182,165.28084 72.5690182,162.917366 L72.5690182,162.917366 Z" fill="#FFFFFF"/>
  </g>
</svg>

<svg viewBox="0 0 256 248" xmlns="http://www.w3.org/2000/svg" preserveAspectRatio="xMidYMid" height="1em" width="1em">
  <path d="M50.2.092 255.89 41.71l-41.618 205.695-205.69-41.616L50.2.092Z" fill="#512833"/>
  <path d="m24.17 9.173 208.883 20.273L212.78 238.33 3.897 218.057 24.171 9.173Z" fill="#934358"/>
  <path fill="#E5637C" d="M.182 18.825h209.869v209.869H.182z"/>
  <path d="M72.569 162.917c0-1.24.775-3.107 2.331-5.595 1.553-2.486 2.953-3.73 4.197-3.73.122 0 1.12.591 2.985 1.772 1.865 1.183 4.538 2.363 8.02 3.544 3.48 1.183 7.677 1.772 12.59 1.772 4.912 0 8.954-1.4 12.125-4.197 3.171-2.798 4.757-6.59 4.757-11.378 0-4.785-1.4-8.516-4.198-11.192-2.798-2.672-8.364-5.19-16.694-7.553-8.332-2.36-14.362-5.377-18.093-9.047-3.73-3.666-5.595-9.233-5.595-16.694 0-7.46 2.858-13.71 8.58-18.746 5.717-5.036 13.179-7.554 22.382-7.554 6.342 0 12 .81 16.975 2.425 4.972 1.618 7.46 3.422 7.46 5.41 0 1.616-.717 3.7-2.144 6.248-1.432 2.55-2.705 3.824-3.824 3.824-.126 0-.933-.374-2.425-1.12-4.23-2.239-8.986-3.357-14.27-3.357-5.286 0-9.39 1.09-12.31 3.264-2.923 2.177-4.383 5.007-4.383 8.487 0 3.482 1.087 6.219 3.264 8.207 2.174 1.99 5.876 3.795 11.098 5.409 11.687 3.608 19.614 7.554 23.782 11.844 4.165 4.29 6.249 10.758 6.249 19.399 0 8.645-3.078 15.761-9.234 21.357-6.155 5.596-13.523 8.393-22.103 8.393-8.58 0-15.98-1.273-22.196-3.823-6.219-2.548-9.326-5.005-9.326-7.369Z" fill="#FFF"/>
</svg>
